;FLAVOR:Marlin
;TIME:4896
;Filament used: 2.4847m
;Layer height: 0.2
;MINX:89
;MINY:86.5
;MINZ:0.2
;MAXX:131
;MAXY:131
;MAXZ:65
;TARGET_MACHINE.NAME:Creality Ender-3 S1 Pro
;Generated with Cura_SteamEngine 5.10.2
; Ender 3 S1 Pro Start G-code
; M413 S0 ; Disable power loss recovery
G92 E0 ; Reset Extruder

; Prep surfaces before auto home for better accuracy
M140 S60
M104 S200

G28 ; Home all axes
G1 Z10.0 F3000 ; Move Z Axis up little to prevent scratching of Heat Bed
G1 X0 Y0

M190 S60
M109 S200

G1 X0.1 Y20 Z0.3 F5000.0 ; Move to start position
G1 X0.1 Y200.0 Z0.3 F1500.0 E15 ; Draw the first line
G1 X0.4 Y200.0 Z0.3 F5000.0 ; Move to side a little
G1 X0.4 Y20 Z0.3 F1500.0 E30 ; Draw the second line
G92 E0 ; Reset Extruder
G1 Z2.0 F3000 ; Move Z Axis up little to prevent scratching of Heat Bed
G1 X5 Y20 Z0.3 F5000.0 ; Move over to prevent blob squish

M82 ;absolute extrusion mode
G92 E0
G92 E0
G1 F2400 E-0.8
;LAYER_COUNT:325
;LAYER:0
M107
M204 S2000
G0 F7500 X92.259 Y92.205 Z0.2
M204 S500
;TYPE:SKIRT
G1 F2400 E0
G1 F1500 X92.979 Y91.549 E0.0324
G1 X93.696 Y91 E0.06243
G1 X94.58 Y90.442 E0.0972
G1 X95.447 Y89.998 E0.1296
G1 X96.283 Y89.658 E0.15962
G1 X97.236 Y89.362 E0.19281
G1 X98.984 Y88.916 E0.25281
G1 X101.436 Y88.24 E0.3374
G1 X103.825 Y87.505 E0.42054
G1 X105.307 Y87.026 E0.47234
G1 X106.284 Y86.765 E0.50598
G1 X107.136 Y86.614 E0.53475
G1 X108.291 Y86.515 E0.57331
G1 X108.948 Y86.5 E0.59517
G1 X110.939 Y86.5 E0.66139
G1 X111.807 Y86.511 E0.69026
G1 X112.371 Y86.535 E0.70904
G1 X113.68 Y86.664 E0.75279
G1 X114.27 Y86.743 E0.77258
G1 X115.156 Y86.916 E0.80261
G1 X115.748 Y87.075 E0.823
G1 X116.471 Y87.312 E0.8483
G1 X118.27 Y87.957 E0.91187
G1 X120.61 Y88.718 E0.99371
G1 X123.228 Y89.494 E1.08453
G1 X123.83 Y89.699 E1.10568
G1 X124.749 Y90.091 E1.13891
G1 X125.638 Y90.569 E1.17248
G1 X126.452 Y91.106 E1.20492
G1 X127.213 Y91.711 E1.23725
G1 X127.869 Y92.331 E1.26727
G1 X128.562 Y93.114 E1.30205
G1 X129.139 Y93.9 E1.33448
G1 X129.609 Y94.671 E1.36451
G1 X130.072 Y95.607 E1.39925
G1 X130.421 Y96.516 E1.43163
G1 X130.69 Y97.452 E1.46402
G1 X130.864 Y98.338 E1.49405
G1 X130.987 Y99.706 E1.53974
G1 X131 Y100.33 E1.5605
G1 X130.999 Y119.416 E2.1953
G1 X130.987 Y120.177 E2.22061
G1 X130.929 Y121.15 E2.25303
G1 X130.783 Y122.113 E2.28543
G1 X130.552 Y123.06 E2.31785
G1 X130.239 Y123.982 E2.35023
G1 X129.847 Y124.873 E2.38261
G1 X129.395 Y125.695 E2.41381
G1 X128.833 Y126.533 E2.44737
G1 X128.243 Y127.263 E2.47859
G1 X127.54 Y127.989 E2.5122
G1 X126.804 Y128.625 E2.54455
G1 X126.014 Y129.195 E2.57695
G1 X125.238 Y129.658 E2.60701
G1 X124.298 Y130.111 E2.64172
G1 X123.385 Y130.453 E2.67414
G1 X122.447 Y130.712 E2.70651
G1 X121.481 Y130.889 E2.73917
G1 X120.345 Y130.985 E2.77709
G1 X119.67 Y131 E2.79955
G1 X100.549 Y130.999 E3.43551
G1 X99.816 Y130.987 E3.4599
G1 X98.844 Y130.928 E3.49228
G1 X97.881 Y130.782 E3.52468
G1 X96.934 Y130.551 E3.5571
G1 X96.046 Y130.251 E3.58828
G1 X95.154 Y129.861 E3.62066
G1 X94.271 Y129.374 E3.6542
G1 X93.52 Y128.872 E3.68424
G1 X92.705 Y128.214 E3.71908
G1 X92.007 Y127.536 E3.75144
G1 X91.371 Y126.799 E3.78382
G1 X90.801 Y126.009 E3.81622
G1 X90.339 Y125.233 E3.84626
G1 X89.885 Y124.291 E3.88104
G1 X89.556 Y123.413 E3.91223
G1 X89.287 Y122.44 E3.9458
G1 X89.11 Y121.473 E3.9785
G1 X89.014 Y120.308 E4.01738
G1 X89 Y119.658 E4.039
G1 X89.001 Y100.509 E4.6759
G1 X89.013 Y99.814 E4.69902
G1 X89.058 Y98.999 E4.72617
G1 X89.19 Y98.035 E4.75853
G1 X89.406 Y97.086 E4.7909
G1 X89.705 Y96.16 E4.82327
G1 X90.056 Y95.327 E4.85333
G1 X90.546 Y94.403 E4.88812
G1 X91.078 Y93.588 E4.92049
G1 X91.635 Y92.877 E4.95053
G1 X92.259 Y92.205 E4.98103
M204 S2000
G0 F7500 X92.529 Y92.5
M204 S500
G1 F1500 X93.222 Y91.867 E5.01225
G1 X93.939 Y91.318 E5.04228
G1 X94.763 Y90.798 E5.07469
G1 X95.598 Y90.369 E5.10591
G1 X96.434 Y90.029 E5.13593
G1 X97.335 Y89.75 E5.1673
G1 X99.083 Y89.304 E5.2273
G1 X101.542 Y88.626 E5.31214
G1 X103.948 Y87.886 E5.39586
G1 X105.43 Y87.407 E5.44767
G1 X106.354 Y87.159 E5.47949
G1 X107.17 Y87.013 E5.50706
G1 X108.325 Y86.914 E5.54561
G1 X108.957 Y86.9 E5.56664
G1 X110.934 Y86.9 E5.6324
G1 X111.79 Y86.911 E5.66087
G1 X112.354 Y86.935 E5.67964
G1 X113.627 Y87.06 E5.72219
G1 X114.193 Y87.136 E5.74118
G1 X115.079 Y87.309 E5.77121
G1 X115.623 Y87.455 E5.78994
G1 X116.336 Y87.689 E5.8149
G1 X118.135 Y88.333 E5.87845
G1 X120.496 Y89.102 E5.96104
G1 X123.099 Y89.873 E6.05133
G1 X123.701 Y90.078 E6.07249
G1 X124.592 Y90.459 E6.10472
G1 X125.418 Y90.903 E6.13591
G1 X126.203 Y91.419 E6.16715
G1 X126.938 Y92.002 E6.19835
G1 X127.594 Y92.622 E6.22838
G1 X128.24 Y93.351 E6.26077
G1 X128.797 Y94.108 E6.29203
G1 X129.267 Y94.879 E6.32206
G1 X129.699 Y95.751 E6.35443
G1 X130.037 Y96.627 E6.38566
G1 X130.297 Y97.529 E6.41688
G1 X130.471 Y98.415 E6.44691
G1 X130.587 Y99.714 E6.49029
G1 X130.6 Y100.33 E6.51078
G1 X130.599 Y119.41 E7.14539
G1 X130.588 Y120.154 E7.17014
G1 X130.533 Y121.091 E7.20135
G1 X130.394 Y122.019 E7.23256
G1 X130.173 Y122.932 E7.26381
G1 X129.873 Y123.821 E7.29501
G1 X129.496 Y124.68 E7.32621
G1 X129.044 Y125.502 E7.35742
G1 X128.521 Y126.282 E7.38865
G1 X127.955 Y126.985 E7.41867
G1 X127.278 Y127.687 E7.45111
G1 X126.57 Y128.301 E7.48228
G1 X125.809 Y128.851 E7.51351
G1 X125.033 Y129.314 E7.54356
G1 X124.157 Y129.737 E7.57591
G1 X123.278 Y130.068 E7.60715
G1 X122.374 Y130.319 E7.63836
G1 X121.447 Y130.49 E7.66971
G1 X120.311 Y130.586 E7.70763
G1 X119.67 Y130.6 E7.72895
G1 X100.555 Y130.599 E8.36472
G1 X99.84 Y130.588 E8.38851
G1 X98.903 Y130.532 E8.41973
G1 X97.975 Y130.393 E8.45094
G1 X97.062 Y130.172 E8.48218
G1 X96.206 Y129.884 E8.51222
G1 X95.314 Y129.494 E8.5446
G1 X94.493 Y129.041 E8.57579
G1 X93.742 Y128.539 E8.60583
G1 X92.983 Y127.927 E8.63826
G1 X92.309 Y127.274 E8.66947
G1 X91.695 Y126.565 E8.70067
G1 X91.145 Y125.804 E8.7319
G1 X90.683 Y125.028 E8.76193
G1 X90.26 Y124.151 E8.79432
G1 X89.931 Y123.273 E8.8255
G1 X89.68 Y122.368 E8.85674
G1 X89.509 Y121.44 E8.88813
G1 X89.413 Y120.275 E8.92701
G1 X89.4 Y119.658 E8.94753
G1 X89.401 Y100.515 E9.58423
G1 X89.412 Y99.835 E9.60685
G1 X89.454 Y99.053 E9.6329
G1 X89.58 Y98.123 E9.66411
G1 X89.787 Y97.208 E9.69531
G1 X90.074 Y96.315 E9.72651
G1 X90.425 Y95.482 E9.75658
G1 X90.881 Y94.621 E9.78898
G1 X91.393 Y93.835 E9.82018
G1 X91.95 Y93.124 E9.85022
G1 X92.529 Y92.5 E9.87853
M204 S2000
G0 F7500 X92.799 Y92.795
M204 S500
G1 F1500 X93.465 Y92.185 E9.90857
G1 X94.182 Y91.636 E9.93861
G1 X94.946 Y91.154 E9.96865
G1 X95.749 Y90.74 E9.9987
G1 X96.585 Y90.4 E10.02872
G1 X97.434 Y90.138 E10.05827
G1 X99.182 Y89.692 E10.11827
G1 X101.648 Y89.011 E10.20336
G1 X104.071 Y88.267 E10.28766
G1 X105.553 Y87.788 E10.33947
G1 X106.425 Y87.553 E10.3695
G1 X107.204 Y87.412 E10.39583
G1 X108.359 Y87.313 E10.43439
G1 X108.966 Y87.3 E10.45458
G1 X110.929 Y87.3 E10.51987
G1 X111.773 Y87.311 E10.54795
G1 X112.337 Y87.335 E10.56672
G1 X113.574 Y87.456 E10.60806
G1 X114.116 Y87.529 E10.62625
G1 X115.002 Y87.702 E10.65628
G1 X115.498 Y87.835 E10.67336
G1 X116.201 Y88.066 E10.69797
G1 X118 Y88.709 E10.76151
G1 X120.384 Y89.486 E10.84491
G1 X122.317 Y90.052 E10.9119
G1 X122.97 Y90.252 E10.93461
G1 X123.572 Y90.457 E10.95577
G1 X124.403 Y90.812 E10.98582
G1 X125.199 Y91.238 E11.01585
G1 X125.955 Y91.733 E11.04591
G1 X126.663 Y92.293 E11.07593
G1 X127.319 Y92.913 E11.10595
G1 X127.918 Y93.589 E11.13599
G1 X128.455 Y94.316 E11.16605
G1 X128.925 Y95.087 E11.19609
G1 X129.326 Y95.896 E11.22612
G1 X129.653 Y96.738 E11.25616
G1 X129.904 Y97.606 E11.28621
G1 X130.078 Y98.492 E11.31624
G1 X130.187 Y99.723 E11.35735
G1 X130.2 Y100.33 E11.37754
G1 X130.199 Y119.404 E12.01194
G1 X130.189 Y120.131 E12.03613
G1 X130.137 Y121.033 E12.06618
G1 X130.005 Y121.926 E12.0962
G1 X129.794 Y122.805 E12.12627
G1 X129.507 Y123.661 E12.1563
G1 X129.145 Y124.488 E12.18632
G1 X128.711 Y125.28 E12.21636
G1 X128.209 Y126.031 E12.2464
G1 X127.643 Y126.734 E12.27642
G1 X127.016 Y127.385 E12.30648
G1 X126.335 Y127.977 E12.3365
G1 X125.604 Y128.507 E12.36653
G1 X124.828 Y128.97 E12.39658
G1 X124.015 Y129.363 E12.42662
G1 X123.17 Y129.683 E12.45667
G1 X122.301 Y129.926 E12.48668
G1 X121.413 Y130.091 E12.51672
G1 X120.277 Y130.187 E12.55464
G1 X119.67 Y130.2 E12.57483
G1 X100.561 Y130.199 E13.2104
G1 X99.863 Y130.189 E13.23362
G1 X98.961 Y130.136 E13.26367
G1 X98.068 Y130.004 E13.2937
G1 X97.19 Y129.793 E13.32373
G1 X96.334 Y129.505 E13.35377
G1 X95.507 Y129.143 E13.38379
G1 X94.715 Y128.708 E13.41385
G1 X93.964 Y128.206 E13.44389
G1 X93.261 Y127.639 E13.47393
G1 X92.611 Y127.012 E13.50397
G1 X92.019 Y126.33 E13.53401
G1 X91.489 Y125.599 E13.56404
G1 X91.027 Y124.823 E13.59408
G1 X90.634 Y124.01 E13.62411
G1 X90.316 Y123.165 E13.65414
G1 X90.073 Y122.295 E13.68418
G1 X89.908 Y121.407 E13.71422
G1 X89.813 Y120.266 E13.75231
G1 X89.8 Y119.658 E13.77253
G1 X89.801 Y100.521 E14.40903
G1 X89.811 Y99.856 E14.43115
G1 X89.85 Y99.106 E14.45613
G1 X89.97 Y98.211 E14.48616
G1 X90.168 Y97.33 E14.5162
G1 X90.443 Y96.47 E14.54623
G1 X90.794 Y95.637 E14.57629
G1 X91.217 Y94.839 E14.60633
G1 X91.708 Y94.082 E14.63634
G1 X92.265 Y93.371 E14.66638
G1 X92.799 Y92.795 E14.69251
M204 S2000
G1 F2400 E13.89251
G0 F7500 X105.747 Y98.735
M204 S500
G1 F2400 E14.69251
G1 F1500 X106.307 Y98.599 E14.71168
G1 X106.317 Y98.597 E14.71201
G1 X107.68 Y98.192 E14.75931
G1 X107.688 Y98.189 E14.75959
G1 X108.034 Y98.07 E14.77176
G1 X108.041 Y98.068 E14.772
G1 X108.708 Y97.811 E14.79578
G1 X108.805 Y97.732 E14.79994
G1 X108.814 Y97.7 E14.80104
G1 X111.481 Y97.7 E14.88975
G1 X111.63 Y97.778 E14.89534
G1 X112.567 Y97.805 E14.92652
G1 X112.979 Y97.967 E14.94124
G1 X113.751 Y98.364 E14.97012
G1 X113.83 Y98.435 E14.97365
G1 X113.847 Y98.448 E14.97436
G1 X114.325 Y98.792 E14.99395
G1 X114.258 Y99 E15.00122
G1 X105.778 Y99 E15.28326
G1 X105.747 Y98.735 E15.29214
M204 S2000
G1 F2400 E14.49214
G0 F7500 X107.71 Y98.6
M204 S500
G1 F2400 E15.29214
G1 F1500 X107.794 Y98.575 E15.29505
G1 X107.818 Y98.567 E15.29589
G1 X108.164 Y98.448 E15.30806
G1 X108.185 Y98.441 E15.3088
G1 X108.852 Y98.184 E15.33257
G1 X108.989 Y98.1 E15.33792
G1 X111.346 Y98.1 E15.41631
G1 X111.362 Y98.112 E15.41698
G1 X111.619 Y98.178 E15.4258
G1 X112.486 Y98.203 E15.45465
G1 X112.811 Y98.331 E15.46627
G1 X113.334 Y98.6 E15.48583
G1 X107.71 Y98.6 E15.67289
M204 S2000
G1 F2400 E14.87289
;MESH:??????2.stl
G0 F7500 X107.71 Y100.43
G0 X110 Y119.4
M204 S500
;TYPE:WALL-INNER
G1 F2400 E15.67289
G1 F1500 X119.4 Y119.4 E15.98553
G1 X119.4 Y100.6 E16.61082
G1 X100.6 Y100.6 E17.23611
G1 X100.6 Y119.4 E17.8614
G1 X110 Y119.4 E18.17405
M204 S2000
G0 F7500 X110 Y119.8
M204 S500
;TYPE:WALL-OUTER
G1 F1500 X119.8 Y119.8 E18.5
G1 X119.8 Y100.2 E19.1519
G1 X100.2 Y100.2 E19.80379
G1 X100.2 Y119.8 E20.45569
G1 X110 Y119.8 E20.78164
M204 S2000
G0 F7500 X110 Y119.04
M204 S500
;TYPE:SKIN
G1 F1500 X100.96 Y119.04 E21.08231
G1 X100.96 Y100.96 E21.68366
G1 X119.04 Y100.96 E22.285
G1 X119.04 Y119.04 E22.88634
G1 X110 Y119.04 E23.18702
M204 S2000
G0 F7500 X110 Y119.3
G0 X100.772 Y119.228
G0 X100.7 Y118.696
G0 X101.159 Y118.696
M204 S500
G1 F1500 X101.304 Y118.84 E23.19381
M204 S2000
G0 F7500 X101.869 Y118.84
M204 S500
G1 F1500 X101.159 Y118.13 E23.22721
M204 S2000
G0 F7500 X101.159 Y117.564
M204 S500
G1 F1500 X102.435 Y118.84 E23.28723
M204 S2000
G0 F7500 X103.001 Y118.84
M204 S500
G1 F1500 X101.159 Y116.999 E23.37385
M204 S2000
G0 F7500 X101.159 Y116.433
M204 S500
G1 F1500 X103.566 Y118.84 E23.48706
M204 S2000
G0 F7500 X104.132 Y118.84
M204 S500
G1 F1500 X101.159 Y115.867 E23.6269
M204 S2000
G0 F7500 X101.159 Y115.302
M204 S500
G1 F1500 X104.698 Y118.84 E23.79334
M204 S2000
G0 F7500 X105.263 Y118.84
M204 S500
G1 F1500 X101.159 Y114.736 E23.98638
M204 S2000
G0 F7500 X101.159 Y114.17
M204 S500
G1 F1500 X105.829 Y118.84 E24.20605
M204 S2000
G0 F7500 X106.395 Y118.84
M204 S500
G1 F1500 X101.159 Y113.604 E24.45233
M204 S2000
G0 F7500 X101.159 Y113.039
M204 S500
G1 F1500 X106.961 Y118.84 E24.72522
M204 S2000
G0 F7500 X107.526 Y118.84
M204 S500
G1 F1500 X101.159 Y112.473 E25.0247
M204 S2000
G0 F7500 X101.159 Y111.907
M204 S500
G1 F1500 X108.092 Y118.84 E25.35081
M204 S2000
G0 F7500 X108.658 Y118.84
M204 S500
G1 F1500 X101.159 Y111.342 E25.70351
M204 S2000
G0 F7500 X101.159 Y110.776
M204 S500
G1 F1500 X109.223 Y118.84 E26.08282
M204 S2000
G0 F7500 X109.789 Y118.84
M204 S500
G1 F1500 X101.159 Y110.21 E26.48875
M204 S2000
G0 F7500 X101.159 Y109.645
M204 S500
G1 F1500 X110.355 Y118.84 E26.92128
M204 S2000
G0 F7500 X110.92 Y118.84
M204 S500
G1 F1500 X101.159 Y109.079 E27.38041
M204 S2000
G0 F7500 X101.159 Y108.513
M204 S500
G1 F1500 X111.486 Y118.84 E27.86616
M204 S2000
G0 F7500 X112.052 Y118.84
M204 S500
G1 F1500 X101.159 Y107.948 E28.37851
M204 S2000
G0 F7500 X101.159 Y107.382
M204 S500
G1 F1500 X112.617 Y118.84 E28.91745
M204 S2000
G0 F7500 X113.183 Y118.84
M204 S500
G1 F1500 X101.159 Y106.816 E29.48303
M204 S2000
G0 F7500 X101.159 Y106.251
M204 S500
G1 F1500 X113.749 Y118.84 E30.0752
M204 S2000
G0 F7500 X114.314 Y118.84
M204 S500
G1 F1500 X101.159 Y105.685 E30.69397
M204 S2000
G0 F7500 X101.159 Y105.119
M204 S500
G1 F1500 X114.88 Y118.84 E31.33936
M204 S2000
G0 F7500 X115.446 Y118.84
M204 S500
G1 F1500 X101.159 Y104.554 E32.01136
M204 S2000
G0 F7500 X101.159 Y103.988
M204 S500
G1 F1500 X116.011 Y118.84 E32.70995
M204 S2000
G0 F7500 X116.577 Y118.84
M204 S500
G1 F1500 X101.159 Y103.422 E33.43516
M204 S2000
G0 F7500 X101.159 Y102.856
M204 S500
G1 F1500 X117.143 Y118.84 E34.187
M204 S2000
G0 F7500 X117.709 Y118.84
M204 S500
G1 F1500 X101.159 Y102.291 E34.96544
M204 S2000
G0 F7500 X101.159 Y101.725
M204 S500
G1 F1500 X118.274 Y118.84 E35.77048
M204 S2000
G0 F7500 X118.84 Y118.84
M204 S500
G1 F1500 X101.16 Y101.16 E36.60209
M204 S2000
G0 F7500 X101.726 Y101.16
M204 S500
G1 F1500 X118.84 Y118.274 E37.40708
M204 S2000
G0 F7500 X118.84 Y117.709
M204 S500
G1 F1500 X102.291 Y101.16 E38.18549
M204 S2000
G0 F7500 X102.857 Y101.16
M204 S500
G1 F1500 X118.84 Y117.143 E38.93729
M204 S2000
G0 F7500 X118.84 Y116.577
M204 S500
G1 F1500 X103.423 Y101.16 E39.66245
M204 S2000
G0 F7500 X103.989 Y101.16
M204 S500
G1 F1500 X118.84 Y116.011 E40.361
M204 S2000
G0 F7500 X118.84 Y115.446
M204 S500
G1 F1500 X104.554 Y101.16 E41.03297
M204 S2000
G0 F7500 X105.12 Y101.16
M204 S500
G1 F1500 X118.84 Y114.88 E41.67832
M204 S2000
G0 F7500 X118.84 Y114.314
M204 S500
G1 F1500 X105.686 Y101.16 E42.29704
M204 S2000
G0 F7500 X106.251 Y101.16
M204 S500
G1 F1500 X118.84 Y113.749 E42.88919
M204 S2000
G0 F7500 X118.84 Y113.183
M204 S500
G1 F1500 X106.817 Y101.16 E43.45471
M204 S2000
G0 F7500 X107.383 Y101.16
M204 S500
G1 F1500 X118.84 Y112.617 E43.99362
M204 S2000
G0 F7500 X118.84 Y112.052
M204 S500
G1 F1500 X107.948 Y101.16 E44.50594
M204 S2000
G0 F7500 X108.514 Y101.16
M204 S500
G1 F1500 X118.84 Y111.486 E44.99164
M204 S2000
G0 F7500 X118.84 Y110.92
M204 S500
G1 F1500 X109.08 Y101.16 E45.45073
M204 S2000
G0 F7500 X109.645 Y101.16
M204 S500
G1 F1500 X118.84 Y110.355 E45.88323
M204 S2000
G0 F7500 X118.84 Y109.789
M204 S500
G1 F1500 X110.211 Y101.16 E46.28911
M204 S2000
G0 F7500 X110.777 Y101.16
M204 S500
G1 F1500 X118.84 Y109.223 E46.66837
M204 S2000
G0 F7500 X118.84 Y108.658
M204 S500
G1 F1500 X111.342 Y101.16 E47.02105
M204 S2000
G0 F7500 X111.908 Y101.16
M204 S500
G1 F1500 X118.84 Y108.092 E47.34711
M204 S2000
G0 F7500 X118.84 Y107.526
M204 S500
G1 F1500 X112.474 Y101.16 E47.64655
M204 S2000
G0 F7500 X113.04 Y101.16
M204 S500
G1 F1500 X118.84 Y106.961 E47.91939
M204 S2000
G0 F7500 X118.84 Y106.395
M204 S500
G1 F1500 X113.605 Y101.16 E48.16563
M204 S2000
G0 F7500 X114.171 Y101.16
M204 S500
G1 F1500 X118.84 Y105.829 E48.38524
M204 S2000
G0 F7500 X118.84 Y105.263
M204 S500
G1 F1500 X114.737 Y101.16 E48.57823
M204 S2000
G0 F7500 X115.302 Y101.16
M204 S500
G1 F1500 X118.84 Y104.698 E48.74465
M204 S2000
G0 F7500 X118.84 Y104.132
M204 S500
G1 F1500 X115.868 Y101.16 E48.88444
M204 S2000
G0 F7500 X116.434 Y101.16
M204 S500
G1 F1500 X118.84 Y103.566 E48.99762
M204 S2000
G0 F7500 X118.84 Y103.001
M204 S500
G1 F1500 X116.999 Y101.16 E49.08421
M204 S2000
G0 F7500 X117.565 Y101.16
M204 S500
G1 F1500 X118.84 Y102.435 E49.14418
M204 S2000
